X: 3178
T: Bedford Cross
R: slide
M: 12/8
K: Adorian
|:A3 AGA B2A G2B|AGE G2E D2E G2B
ABA AGA B2A G2B|1 AGE G2E D3 DGB:|2 AGE G2E D3 D2A||
|:d2A AGA B2A G2B|AGE G2E D2E G2A|
d2A AGA B2A G2B|1 AGE G2E D3 D2A:|2 AGE G2E D2E G2B||

